src/assets/images/icons/inbox.svg

<svg width="24" height="24" viewBox="0 0 24 24" fill="none" xmlns="http://www.w3.org/2000/svg">
<path d="M22 12H16L14 15H10L8 12H2M22 12V18C22 18.5304 21.7893 19.0391 21.4142 19.4142C21.0391 19.7893 20.5304 20 20 20H4C3.46957 20 2.96086 19.7893 2.58579 19.4142C2.21071 19.0391 2 18.5304 2 18V12M22 12L18.55 5.11C18.3844 4.77679 18.1292 4.49637 17.813 4.30028C17.4967 4.10419 17.1321 4.0002 16.76 4H7.24C6.86792 4.0002 6.50326 4.10419 6.18704 4.30028C5.87083 4.49637 5.61558 4.77679 5.45 5.11L2 12" stroke="#181D27" stroke-width="2" stroke-linecap="round" stroke-linejoin="round"/>
</svg>

<svg xmlns="http://www.w3.org/2000/svg" fill="none" viewBox="0 0 24 24"><path stroke="#181D27" stroke-linecap="round" stroke-linejoin="round" stroke-width="2" d="M22 12h-6l-2 3h-4l-2-3H2m20 0v6a2 2 0 0 1-2 2H4a2 2 0 0 1-2-2v-6m20 0-3.45-6.89A2 2 0 0 0 16.76 4H7.24a2 2 0 0 0-1.79 1.11L2 12"/></svg>
